X:1
T:Bredon Hill and Other Songs
T:On the Idle Hill of Summer
T:Bredon Hill and Other Songs
T:George Butterworth
T:4. On the Idle Hill of Summer
T:Alfred Edward Housman
T:Creative Commons copyright waiver (CC0 1.0 Universal)
T:Creative Commons copyright waiver (CC0 1.0 Universal)
T:Creative Commons copyright waiver (CC0 1.0 Universal)
T:Creative Commons copyright waiver (CC0 1.0 Universal)
C:George Butterworth
Z:Alfred Edward Housman
Z:Creative Commons copyright waiver (CC0 1.0 Universal)
%%score ( 1 2 ) { ( 3 6 ) | ( 4 5 ) }
L:1/8
Q:1/4=72
M:3/4
K:A
V:1 treble nm="Voice"
V:2 treble 
V:3 treble nm="Piano"
V:6 treble 
V:4 bass 
V:5 bass 
V:1
"^Molto sostenuto" z6 | z6 |!p! C3/2"^quasi languido" E/ (3(EF) c c F | E F3 c2- | %4
w: ||On the i- * dle hill of|sum- mer, Sleep-|
 c F E F A3/2 C/ | C4 z2 | C3/2 E/ E F F c | c !tenuto!.F c3 c | E F A3 C | C4 z2 | z6 | z6 | z6 | %13
w: * y with the flow of|streams,|Far I hear the stead- y|drum- mer Drum- ming|like a noise in|dreams.||||
!<(! G3/2 G/!<)!!>(! c3 G!>)! |!<(! G3/2 c/!<)!!>(! c3 G!>)! | F3/2 F/"^cresc." B F F3/2 ^c/ | %16
w: Far and near and|low and loud- er,|On the roads of earth go|
!<(! B6!<)! |!f! d3/2 B/ A4 | z!p! D D3 D |!<(! A4 B2!<)! |!f!!>(! c4 F2 | E2 F4!>)! | z2!p! A3 C | %23
w: by,|Dear to friends|and food for|pow- der,|Sol- diers|march- ing,|all to|
 C6- | C6- | C z z2 z2 |!p! C3/2 E/ E F c3/2 F/ | E F3 c2- | c F E F A3/2 C/ | C4 (3(CD) E | %30
w: die.|_||East and west on fields for-|got- ten Bleach|_ the bones of com- rades|slain, Love- * ly|
 F3/2 F/ c3 F | E F3 c2- | c F E F A3/2 C/ | C6- | C z z2 z2 | z6 | z6 | %37
w: lads and dead and|rot- ten; None|_ that go re- turn a-|gain.|_|||
!mf!"^Poco animato." c3/2 F/ F c B c | A F3- F z ||[K:C] d3/2 G/ G d (c/_B/) (G/d/) |!<(! c6!<)! | %41
w: Far the call- ing bu- gles|hol- lo, _|High the scream- ing fife * re- *|plies,|
!f! _e3/2 c/ _B c e3/2 c/ |!<(! (_B3 c) _e2!<)! | z2!ff! f4- |"^allargando"!>(! f4 F2!>)! | G6 | %46
w: Gay the files of scar- let|fol- * low:|Wo-|* man|bore|
 F4 z2 | z2 z2!p! F2- | %48
w: me,|I|
"^IMSLP650688 has a double \ndot here,which is inaccurate\nV\nV\nV\nV\nV\n" F4- F F | %49
w: _ _ will|
!f![Q:1/4=114]"^Tempo moderato"[Q:1/4=90]!<(! _d6- | d6-!<)! ||[K:A][Q:1/4=88] d z z2 z2 | z6 | %53
w: rise.|_|||
[Q:1/4=85] z6 |[Q:1/4=82] z6 |[Q:1/4=79] z6 |[Q:1/4=76] z6 |[Q:1/4=70] z6 |[Q:1/4=60] z6 | z6 |] %60
w: |||||||
V:2
 x6 | x6 | x6 | x6 | x6 | x6 | x6 | x6 | x6 | x6 | x6 | x6 | x6 | x6 | x6 | x6 | x6 | x6 | x6 | %19
 x6 | x6 | x6 | x6 | x2!>(! x2 x2 | x2 x2!>)! x2 | x6 | x6 | x6 | x6 | x6 | x6 | x6 | x6 | x6 | %34
 x6 | x6 | x6 | x6 | x6 ||[K:C] x6 | x6 | x6 | x6 | x6 | x6 | x6 | x6 | x6 | x2"^cresc." x2 x2 | %49
 x6 | x6 ||[K:A] x6 | x6 | x6 | x6 | x6 | x6 | x6 | x6 | x6 |] %60
V:3
 z[K:bass]!pp!!<(! [E,F,C]2 [E,F,C]2 [E,F,C]- | [E,F,C] [E,F,C]2!<)! [E,F,C]2 [E,F,C]- | %2
 [E,F,C] [E,F,C]2 [E,F,C]2 [E,F,C]- | [E,F,C] [E,F,C]2 [E,F,C]2 [E,F,C]- | %4
 [E,F,C] [E,F,C]2 [E,F,C]2 [E,F,C]- | [E,F,C] [E,F,C]2 [E,F,C]2 [E,F,C]- | %6
 [E,F,C] [E,F,C]2 [E,F,C]2 [E,F,C]- | [E,F,C] [E,F,C]2!>(! [E,F,C]2 [E,F,C]- | %8
 [E,F,C] [E,F,C]2 [E,F,C]2 [E,F,C]!>)! |[K:treble]!pp!!<(! (C4 F2 | G6)!<)! |!ppp! (C4 F2 | G6-) | %13
 G2!>(! !courtesy!^G4-!>)! | G2!>(! (G4!>)! | F2)!>(! F4!>)! | %16
 !tenuto![G,=CF]2"_cresc." !tenuto![B,DB]2 !tenuto![DEe]2 | %17
!mf![I:staff +1] (A,,/4-D,/4-F,/4-B,/4-[I:staff -1] D/4F/4A/4B/4 d>"_cresc."B A/4F/4A/4B/4d/4f/4a/4b/4 | %18
!f! [dd']>!>(![Bb] [Aa]2) ([dd']>[Bb] | [Aa]3 [=F=f]!>)![Ee][Dd]) | %20
!f! z!>(! [CE^Fc]2 [CEFc]2 [CEFc]- | [CEFc] [CEFc]2 [CEFc]2 [CEFc]- | %22
 [CEFc]!>)![K:bass]!p!!>(! [E,F,C]2 [E,F,C]2 [E,F,C]- | %23
 [E,F,C]!>)!!pp! [E,F,C]2 [E,F,C]2 [E,F,C]- | [E,F,C] [E,F,C]2 [E,F,C]2 [E,F,C]- | %25
 [E,F,C] [E,F,C]2 [E,F,C]2 [E,F,C]- | [E,F,C] [E,F,C]2 [E,F,C]2 [E,F,C]- | %27
 [E,F,C] [E,F,C]2 [E,F,C]2 [E,F,C]- | [E,F,C] [E,F,C]2 [E,F,C]2 [E,F,C]- | %29
 [E,F,C] [E,F,C]2 [E,F,C]2 [E,F,C]- | [E,F,C] [E,F,C]2 [E,F,C]2 [E,F,C]- | %31
 [E,F,C] [E,F,C]2 [E,F,C]2 [E,F,C]- | [E,F,C] [E,F,C]2 [E,F,C]2 [E,F,C]- | %33
 [E,F,C] [E,C]3- [E,C]2- | [E,C]!pp! [E,C]2 [E,C]2 [E,C] | z!>(! [E,C]3- [E,C]2!>)! | %36
 z2"^tie added to lower A,\nlike previous bars\nV\nV\nV\nV\n"!>(! [C,C]2- [C,C]!>)! z | %37
[K:treble]!p!!<(![I:staff +1] (D,,/4F,,/4A,,/4C,/4 D,/4F,/4A,/4C/4 D,/4F,/4A,/4C/4[I:staff -1] D/4F/4A/4c/4)!<)!!mf! !tenuto!B!tenuto!c | %38
!p!!<(![I:staff +1] (B,,/8D,/8F,/8A,/8[I:staff -1] B,/8D/8F/8A/8 B,/8D/8F/8A/8 (3B/4d/4f/4)!<)!!f! (3([fa]3/2[eg]/)!tenuto![fa]!>(! (3!tenuto![eg]!tenuto![df]!tenuto![=ce]!>)! || %39
[K:C]!p![I:staff +1] (E,,/4G,,/4_B,,/4D,/4 _E,/4!<(!G,/4_B,/4D/4 E,/4G,/4B,/4D/4[I:staff -1] _E/4G/4_B/4!<)!d/4)!mf! !tenuto!c/!tenuto!B/!tenuto!G/!tenuto!d/ | %40
!p!!<(![I:staff +1] (C,/8_E,/8G,/8_B,/8[I:staff -1] C/8_E/8G/8_B/8 C/8E/8G/8B/8 (3c/4_e/4g/4 !trill(!T_b2-) (b/4a/4g/4a/4b/4a/4g/4f/4)!<)!"_molto" | %41
!mf![I:staff +1] (F,,/4-C,/4-_E,/4-_B,/4-[I:staff -1] _E/4G/4_B/4c/4 _e>"_cresc."c B/4G/4B/4c/4e/4g/4_b/4c'/4 | %42
 _e'>c' _b>_g _e/4c/4e/4g/4b/4c'/4e'/4_g'/4) | %43
 z!ff! [ff']3-"_allargando"!>(! [ff']([_e_e']/[_d_d']/ | [Ff]3) (_e/_d/ F_E/_D/!>)! | %45
!p! B,4) A,2- | A,2!>(! B,4- | B,!>)! z z2"_colla   voce" z2 | %48
 z2!p!!<(! !tenuto!B,2 !tenuto!C2!<)! | %49
!p!!<(![I:staff +1] (3(=A,,,=A,,_D, (3_E,G,_B,!<)!!mf!"_molto cresc."[I:staff -1] (3_D_EG | %50
 (3_B_d_e (3g_b_d'!8va(! (3_e'g'_b') ||[K:A]!ff! ([c'c'']>!>(![ff'] [ee']2 [ff']2-)!>)! | %52
 [ff']/!8va)!!f! ([ee']/[cc']/!>(![Ff]/ [Ee]2 [Ff]2-)!>)! | [Ff]!mf!!>(! (e c2 F2 | %54
"_calando" E4 F2)!>)! |!p! C6- |"_dim." C6 |!pp! C6- |"^morendo"!>(! C6- | C!>)! z z2 z2 |] %60
V:4
"_sempre î™" z6 |!mp!!ped! z2{A,,E,,} A,,, z z2 | z6!ped-up! |!ped! z2{A,,E,,} A,,, z z2 | %4
 z6!ped-up! |!ped! z2{A,,E,,} A,,, z z2 | z6!ped-up! |!ped! z2{A,,E,,} A,,, z z2 | z6!ped-up! | %9
 [^D,F,]6 | ^A,6 | [^D,F,]6 | ^A,6- | A,2 ^E, E,2 (E, | =E,2) ^E, E,2 (E, | D,2) ^D, D,2 D, | %16
 !tenuto!=D,2 !tenuto!F,2 !tenuto!A,2 |!ped! z [A,,D,F,B,]- [A,,D,F,B,] [A,,D,F,B,]2 [A,,D,F,B,]- | %18
 [A,,D,F,B,] [A,,D,=F,B,]2 [A,,D,F,B,]2 [A,,D,F,B,]- | %19
 [A,,D,F,B,] [A,,D,=F,B,]2 [A,,D,F,B,]2 [A,,D,F,B,] | %20
 z!ped-up!!ped! [A,,E,^F,]2 [A,,E,F,]2 [A,,E,F,]- | [A,,E,F,] [A,,E,F,]2 [A,,E,F,]2 [A,,E,F,]- | %22
 [A,,E,F,] A,,2 A,,2 A,,-!ped-up! |!ped! A,, z!mp!{A,,E,,} A,,, z z2 | z6!ped-up! | %25
!ped! z2!p!{A,,E,,} A,,, z z2 | z6!ped-up! |!ped! z2{A,,E,,} A,,, z z2 | z6!ped-up! | %29
!ped! z2{A,,E,,} A,,, z z2 | z6!ped-up! |!ped! z2{A,,E,,} A,,, z z2 | z6!ped-up! | z (F,,3 G,,2 | %34
 A,,) z z z2 z | z (F,,4 G,,) | (E,,4 F,,) z |!ped! z2 z z !tenuto!B,!tenuto!C!ped-up! | %38
!ped! z/ z/ z[K:treble] (3([FA]3/2!ped-up![EG]/)!tenuto![FA] (3!tenuto![EG]!tenuto![DF]!tenuto![=CE] || %39
[K:C][K:bass]!ped! z2 z z!ped-up! !tenuto!C/!tenuto!_B,/!tenuto!G,/!tenuto!D/ | %40
!ped! z/ z/ z!ped-up![K:treble] !trill(!T_B2- (B/4A/4G/4A/4B/4A/4G/4F/4) | %41
[K:bass] z [F,,C,E,B,]- [F,,C,E,B,] [F,,C,_E,_B,]2 [F,,C,E,B,]- | %42
 [F,,C,E,B,] [_G,,C,_E,_B,]2 [G,,C,E,B,]2 [G,,C,E,B,] | %43
!ped! z [=G,,_D,F,=B,]2 [G,,D,F,B,]2 [G,,D,F,B,]- | %44
 [G,,D,F,B,]"_^\n^\n^\nadd missing flat\n" [G,,_D,F,B,]2 [G,,D,F,B,]2 [G,,-D,-F,-B,] | %45
 [G,,D,F,] [G,,_D,F,]2 [G,,D,F,]2 [G,,D,F,]- | [G,,D,F,] [G,,_D,F,]4 [G,,D,F,]- | %47
 [G,,D,F,]!ped-up! z z2 z2 | z2 !tenuto![G,,_D,F,]2 !tenuto![_A,,D,F,]2 |!ped! z2 z2 z2 | %50
 z6!ped-up! ||[K:A]!ped!{/[A,,,A,,]} [E,F,C]!mf!!>(! [E,F,C]2 [E,F,C]2 [E,F,C]-!ped-up! | %52
 [E,F,C] [E,F,C]2 [E,F,C]2 [E,F,C]- | [E,F,C] [E,F,C]2 [E,F,C]2 [E,F,C]- | %54
 [E,F,C] [E,F,C]2 [E,F,C]2 [E,F,C]!>)! |!pp!!ped!!>(! z [E,F,]2 [E,F,]2 [E,F,]- | %56
 [E,F,] [E,F,]2 [E,F,]2 [E,F,]-!ped-up! |!ped! [E,F,] [E,F,]2 [E,F,]2 [E,F,]- | %58
 [E,F,] [E,F,]2 [E,F,]2 [E,F,]- | [E,F,]!>)!!ppp! z z2 z2!ped-up! |] %60
V:5
 x6 | x6 | x6 | x6 | x6 | x6 | x6 | x6 | x6 | z A,,2 A,,2 A,, | [F,,E,]6 | z A,,2 A,,2 A,, | %12
 [F,,E,]6- | [F,,E,]2 (=G,,4 | F,,)(F,, (=G,,4) | =E,,)(E,, (=F,,4) | %16
 E,,)(E,, G,,)(G,, B,,)!tenuto!B,, | x6 | x6 | x6 | x6 | x6 | x6 | x6 | x6 | x6 | x6 | x6 | x6 | %29
 x6 | x6 | x6 | x6 | x6 | x6 | x6 | x6 | x6 | x2[K:treble] x4 ||[K:C][K:bass] x6 | %40
 x2[K:treble] x4 |[K:bass] x6 | x6 | x6 | x6 | x6 | x6 | x6 | x6 | x6 | x6 ||[K:A] x6 | x6 | x6 | %54
 x6 | z2{A,,E,,} A,,, z z2 | z6 | z2{A,,E,,} A,,, z z2 | z6 | z6 |] %60
V:6
 x[K:bass] x5 | x6 | x6 | x6 | x6 | x6 | x6 | x6 | x6 |[K:treble] x6 | z!>(! D2 D2 D!>)! | x6 | %12
 z D2 D2 D- | DD [B,C] [B,C]2 ([B,C] | [^A,D]2) [B,C] [B,C]2 ([B,C] | %15
 [^G,=C]2) [A,B,] [A,B,]2 [A,B,] | x6 | x6 | x6 | x6 | x6 | x6 | x[K:bass] x5 | x6 | x6 | x6 | x6 | %27
 x6 | x6 | x6 | x6 | x6 | x6 | x A,2!>(! (A, G,)(G,!>)! | F,6) | x A,2 (A, G,)G, | x2 (G,2 F,) x | %37
[K:treble] x6 | x6 ||[K:C] x6 | x6 | x6 | x6 | x6 | x6 | x6 | x6 | x6 | x6 | x6 | x4!8va(! x2 || %51
[K:A] x6 | x/!8va)! x11/2 | x6 | x6 | x6 | x6 | x6 | x6 | x6 |] %60

